icon-themes/sifr_svg/cmd/lc_insertfootnote.svg

<svg viewBox="0 0 24 24" xmlns="http://www.w3.org/2000/svg"><path d="m21 1c0 1.163513-1 2-2 2v2h2v4h2v-8zm-8 4v14h.001953 1.998047 4a4 4 0 0 0 4-4 4 4 0 0 0 -4-4h-4v-6zm-10 4v2h6v2h-5c-1.6568542 0-3 1.343146-3 3s1.3431458 3 3 3h7v-8c0-1.10457-.89543-2-2-2zm12 4h4a2 2 0 0 1 2 2 2 2 0 0 1 -2 2h-4zm-11 2h5v2h-5c-.5522847 0-1-.447715-1-1s.4477153-1 1-1z" fill="#555753"/></svg>

<svg xmlns="http://www.w3.org/2000/svg" viewBox="0 0 24 24">
  <path
     style="fill:#555753"
     d="M 21 1 C 21 2.163513 20 3 19 3 L 19 5 L 21 5 L 21 9 L 23 9 L 23 1 L 21 1 z M 13 5 L 13 19 L 13.001953 19 L 15 19 L 19 19 A 4 4 0 0 0 23 15 A 4 4 0 0 0 19 11 L 15 11 L 15 5 L 13 5 z M 3 9 L 3 11 L 9 11 L 9 13 L 4 13 C 2.3431458 13 1 14.343146 1 16 C 1 17.656854 2.3431458 19 4 19 L 11 19 L 11 11 C 11 9.89543 10.10457 9 9 9 L 3 9 z M 15 13 L 19 13 A 2 2 0 0 1 21 15 A 2 2 0 0 1 19 17 L 15 17 L 15 13 z M 4 15 L 9 15 L 9 17 L 4 17 C 3.4477153 17 3 16.552285 3 16 C 3 15.447715 3.4477153 15 4 15 z "
     />
</svg>
